X:430
T:Czar of Muscovy. (p).1701.PLFD1.430
M:6/4
L:1/4
Q:3/4=80
S:Playford, Dancing Master,11th Ed.,1701.
O:England;London
Z:Chris Partington.
K:CPhr
AF2f2F|A2BcBA|GE2e2E|G2ABAG|AF2f2F|
A2B(cB)A|e3g2e|gaba2g|af2a2g|
fe=defg|=BG2g2=d|efgc=de|=BG2=d2F|
EGcDc=B|1c3C2D|=EGcB>AG:|2c3C3|
|g3c2g|aga=d=ef|=e3c2c|GABcBc|
=A3F2c|fefc=de|=d3B2f|babfga|
g3efg|aABB2A|A3A2g|acagcg|
fcf=ecg|acagcg|fcf=ece|fcfgcg|
acagcg|fcfgcg|acagcB|AcfGf=e|f6:|
